X: 28103
T: Mr. O'Connor
R: waltz
M: 3/4
K: Eminor
B2E2F2|GAGF E2|e2E2F2|uGFGA B2|uBc A2B2|
!upbow!BAGF B2|uBAGF E2|D2 ~ F2 uED|E2G2e2|ueBef g2|
GBGB E2|b2 uba g2|FAFA D2|a2 ug2 f2|ufgfe f2|
!upbow!d4 B2|E2uG2F2|E2uA2G2|F2B2A2|uG2c2B2|uBAGF B2|
AGFE F2|b,2E2~ ^D2|E6||b,=DEF G2|B4 AG|F2G2E2|
D2B2e,2|eBef g2|f2d2a2|be ba g2|f4 ~ ed|efed ue2|
G2u F2E2|dedB ud2|GAGA F2|uBcBA B2|E2uG2F2|
E2uA2 GF|uG4 A2|B2 GBGB|d2 Dd Dd|e2 BeBe|
f2 Ff Fg-|g~ fga b2|agfg ua2|ge B2 ^d2|e6||

